X: 13
P: Polska fr\aan Mattmar
R: \AAtabakspolska
B: Svenska l\aatar 323
N: Uppt. av Erik Olsson "\"Acke", M\"arsil (1860-1916)
N: Arr. av G\"oran O:n F\"ollinger
Z: John Chambers <jc@trillian.mit.edu>
%%slurgraces 1
M: 9/16
L: 1/16
K: G
|:"G"D2B, G,2B, D2c | "D"{Bc}B(AG) F2G A(Bc) | "G"B2d    e2f      g2d   | "G"B(dB) "D"A(Bd) "G"B2G |
| "G"D2B, G,2B, D2c | "D"{Bc}B(AG) F2G A(Bc) | "G"B2d "D"c(Ac) "G"B(AG) | "D"F(EF) "G"G6 :|
|:"G"vd(ef) (2gg {g}B3- | "C"B(cd) c(de) "D"A3- | A2B c(Ac) "G"B(AG) | "D"F(DF) "A"E(D^C) "D"E2D |
| "G" d(ef) (2gg {g}B3- | "C"B(cd) c(de) "D"A3- | A2B c(Ac) "G"B(AG) | "D"F(EF) "G"G6 :|
%%newpage
